packages/core/src/svgs/itheum.svg

<svg width="24" height="24" viewBox="0 0 24 24" fill="none" xmlns="http://www.w3.org/2000/svg">
<g clip-path="url(#clip0_31_11941)">
<path d="M0 0H24V24H0V0Z" fill="url(#paint0_linear_31_11941)"/>
<path d="M15.5572 14.8715C15.6171 14.8036 15.6901 14.7485 15.7719 14.7094C15.8536 14.6704 15.9424 14.6483 16.0329 14.6444L16.4401 12.3301C16.3972 12.313 16.3543 12.2872 16.3115 12.2572L14.5501 13.843C14.6339 14.0008 14.6554 14.1844 14.6101 14.3572L15.5529 14.8715H15.5572ZM19.6372 16.6587L17.1172 12.2444C17.0143 12.3301 16.8815 12.3772 16.7443 12.3858L16.3329 14.7001C16.4443 14.743 16.5472 14.8201 16.6201 14.9272C16.6929 15.0258 16.7401 15.1458 16.7529 15.2701C16.764 15.3951 16.7411 15.5208 16.6868 15.6339C16.6325 15.747 16.5488 15.8434 16.4443 15.913C16.3415 15.9815 16.2215 16.0201 16.1015 16.0287C15.9775 16.0365 15.854 16.0082 15.7458 15.9472C15.6346 15.89 15.5434 15.8003 15.4843 15.6901C15.4353 15.6093 15.4036 15.5192 15.391 15.4256C15.3785 15.3319 15.3855 15.2367 15.4115 15.1458L14.4601 14.623C14.3401 14.7558 14.1815 14.8415 14.0058 14.8544L13.7486 16.8172C13.8962 16.8748 14.0199 16.9808 14.0993 17.1178C14.1787 17.2549 14.2092 17.4149 14.1858 17.5715H19.1143C19.1939 17.5715 19.2726 17.5557 19.3459 17.5251C19.4193 17.4944 19.4858 17.4494 19.5417 17.3928C19.5975 17.3362 19.6415 17.269 19.6712 17.1952C19.7008 17.1214 19.7155 17.0425 19.7143 16.963C19.7143 16.8558 19.6886 16.7487 19.6372 16.6587ZM12.0343 11.4944C11.9654 11.3851 11.9278 11.259 11.9255 11.1298C11.9233 11.0006 11.9565 10.8732 12.0215 10.7615L9.65148 8.43439C9.58291 8.48153 9.50148 8.51582 9.41577 8.53296L9.24434 14.113C9.30863 14.1344 9.36434 14.1558 9.42434 14.1944L12.0343 11.4944ZM9.96863 7.84725C9.96863 7.97153 9.93434 8.09582 9.87005 8.20296L12.2401 10.5301C12.3393 10.4641 12.4541 10.4252 12.573 10.4171C12.6919 10.409 12.8109 10.4321 12.9182 10.484C13.0255 10.5359 13.1174 10.6149 13.1849 10.7132C13.2524 10.8114 13.293 10.9256 13.3029 11.0444L16.0715 11.4301C16.1441 11.259 16.2767 11.1203 16.4443 11.0401L12.5229 4.15725C12.4707 4.0645 12.3948 3.98731 12.3029 3.93359C12.211 3.87987 12.1065 3.85156 12.0001 3.85156C11.8936 3.85156 11.7891 3.87987 11.6972 3.93359C11.6053 3.98731 11.5294 4.0645 11.4772 4.15725L9.69434 7.28582C9.78006 7.35011 9.84863 7.43153 9.89577 7.53011C9.93863 7.62868 9.96863 7.73582 9.96863 7.84296V7.84725ZM13.3029 14.4044L9.74577 14.8544L9.72005 14.9958L13.0115 16.9887C13.1229 16.8687 13.2815 16.7958 13.4443 16.7744L13.7058 14.8158C13.6158 14.7815 13.5301 14.7301 13.4658 14.6572C13.3843 14.5844 13.3372 14.503 13.3029 14.4044ZM12.6172 11.8158C12.4886 11.8158 12.3643 11.7815 12.2529 11.713L9.6472 14.413C9.67291 14.4515 9.69005 14.4987 9.71148 14.5415L13.2601 14.0915C13.2729 14.0015 13.3029 13.9072 13.3458 13.8215C13.3886 13.7358 13.4572 13.6672 13.5301 13.6072L12.7372 11.803C12.7072 11.8158 12.6601 11.8158 12.6129 11.8158H12.6172ZM9.56148 15.2744C9.48863 15.3515 9.39863 15.4115 9.29148 15.4458C9.18863 15.4801 9.08577 15.4887 8.97863 15.4801C8.87258 15.4666 8.77202 15.4252 8.6872 15.3601C8.59645 15.2988 8.52181 15.2166 8.46959 15.1204C8.41737 15.0241 8.38911 14.9167 8.3872 14.8072C8.37863 14.7044 8.40434 14.593 8.45148 14.4901C8.49543 14.3917 8.56235 14.3054 8.64663 14.2382C8.7309 14.1711 8.83006 14.1252 8.93577 14.1044L9.1072 8.52868L9.02148 8.49439L4.36291 16.6587C4.28555 16.7992 4.26554 16.9643 4.30708 17.1192C4.34862 17.2742 4.44848 17.4071 4.58577 17.4901C4.68005 17.5458 4.78291 17.5715 4.88577 17.5715H12.8229L12.8186 17.4644C12.8186 17.3915 12.8315 17.3187 12.8486 17.2501L9.56148 15.2744ZM13.9415 13.483C14.0872 13.483 14.2243 13.5258 14.3401 13.6115L16.1058 12.0258C16.0629 11.9487 16.0329 11.8544 16.0286 11.7601L13.2558 11.3744C13.2129 11.4944 13.1272 11.6015 13.0243 11.683L13.8172 13.4915C13.8601 13.483 13.9029 13.4787 13.9458 13.483H13.9415Z" fill="white"/>
</g>
<defs>
<linearGradient id="paint0_linear_31_11941" x1="4.46571" y1="4.16143" x2="29.2071" y2="32.58" gradientUnits="userSpaceOnUse">
<stop stop-color="#1A1E21"/>
<stop offset="1" stop-color="#06060A"/>
</linearGradient>
<clipPath id="clip0_31_11941">
<rect width="24" height="24" fill="white"/>
</clipPath>
</defs>
</svg>

<svg xmlns="http://www.w3.org/2000/svg" width="24" height="24" fill="none" viewBox="0 0 24 24"><g clip-path="url(#a)"><path fill="url(#b)" d="M0 0h24v24H0z"/><path fill="#fff" d="M15.557 14.872a.67.67 0 0 1 .476-.228l.407-2.314a.7.7 0 0 1-.129-.073l-1.76 1.586a.7.7 0 0 1 .06.514l.942.515zm4.08 1.787-2.52-4.415a.65.65 0 0 1-.373.142l-.411 2.314c.111.043.214.12.287.227.073.099.12.219.133.343a.7.7 0 0 1-.651.759.64.64 0 0 1-.356-.082.6.6 0 0 1-.262-.257.69.69 0 0 1-.072-.544l-.952-.523a.68.68 0 0 1-.454.231l-.257 1.963a.7.7 0 0 1 .437.755h4.928a.6.6 0 0 0 .6-.609.6.6 0 0 0-.077-.304m-7.603-5.165a.71.71 0 0 1-.013-.732l-2.37-2.328a.6.6 0 0 1-.235.099l-.172 5.58a.8.8 0 0 1 .18.081zM9.97 7.847a.7.7 0 0 1-.099.356l2.37 2.327a.685.685 0 0 1 1.063.514l2.768.386a.76.76 0 0 1 .373-.39l-3.921-6.883a.6.6 0 0 0-1.046 0L9.694 7.286a.66.66 0 0 1 .202.244.8.8 0 0 1 .073.313zm3.334 6.557-3.557.45-.026.142 3.291 1.993a.72.72 0 0 1 .433-.215l.262-1.958a.6.6 0 0 1-.24-.159.6.6 0 0 1-.163-.253m-.686-2.588a.7.7 0 0 1-.364-.103l-2.606 2.7c.026.038.043.086.064.128l3.55-.45a.9.9 0 0 1 .085-.27.7.7 0 0 1 .184-.214l-.793-1.804c-.03.013-.077.013-.124.013zm-3.056 3.458a.64.64 0 0 1-.27.172q-.152.05-.312.034a.6.6 0 0 1-.292-.12.68.68 0 0 1-.3-.553.65.65 0 0 1 .064-.317.67.67 0 0 1 .485-.386l.171-5.575-.086-.035-4.658 8.165a.62.62 0 0 0 .223.831.6.6 0 0 0 .3.082h7.937l-.004-.108q.002-.11.03-.214zm4.38-1.791c.146 0 .283.043.4.128l1.765-1.585a.6.6 0 0 1-.077-.266l-2.773-.386a.7.7 0 0 1-.232.309l.793 1.809a.4.4 0 0 1 .129-.009z"/></g><defs><linearGradient id="b" x1="4.466" x2="29.207" y1="4.161" y2="32.58" gradientUnits="userSpaceOnUse"><stop stop-color="#1A1E21"/><stop offset="1" stop-color="#06060A"/></linearGradient><clipPath id="a"><path fill="#fff" d="M0 0h24v24H0z"/></clipPath></defs></svg>
